X: 325
T: 326. Allein Gott in der H\"oh sei Ehr / Cantata, BWV 104: Du Hirte Israel, h\"ore
N: Derived from chor326.krn
C: Johann Sebastian Bach
%%abc-version 2.0
%%abcx-abcm2ps-target-version 5.9.1 (29 Sep 2008)
%%abc-creator hum2abc beta
%%abcx-conversion-date 2019/03/11 17:28:19
%%abc-edited-by Craig Stuart Sapp
%%humdrum-veritas 3982794056
%%humdrum-veritas-data 590929322
%%
%%barnumbers 0
L: 1/4
M: C
%%staves [1 2 3 4]
V: 1 clef=treble
V: 2 clef=treble
V: 3 clef=treble-8
V: 4 clef=bass
K: A
[V:1] A/B/ [I:setbarnb 1]| 
[V:2] E | 
[V:3] c/d/ | 
[V:4] A,, | 
[V:1] cded | 
[V:2] AAGF/G/ | 
[V:3] efB/c/d | 
[V:4] A,/G,/F,E,B,, | 
[V:1] cB!fermata!cc | 
[V:2] AG!fermata!AE | 
[V:3] ee!fermata!eA | 
[V:4] C,/D,/E,!fermata!A,,A,/G,/ | 
[V:1] cB/c/ d/c/B | 
[V:2] FF/E/ D/E/E | 
[V:3] A2G/A/G | 
[V:4] F,/E,/ D,/C,/ B,,/A,,/ E,/D,/ | 
[V:1] AB!fermata!A :|]  
[V:2] E/A/G!fermata!E :|]  
[V:3] e/c/ d//c//d/!fermata!c :|]  
[V:4] C,/A,,/E,!fermata!A,, :|]  
[V:1] A [I:setbarnb 5]| 
[V:2] E | 
[V:3] c | 
[V:4] A, | 
[V:1] Bcdc | 
[V:2] EED/E/F | 
[V:3] G^AB^A | 
[V:4] E,D,/C,/B,,E,/F,/ | 
[V:1] Bc!fermata!BB | 
[V:2] F/E/ E/D//C//!fermata!DE | 
[V:3] B^A!fermata!FB | 
[V:4] =G,F,!fermata!B,,^G, | 
[V:1] cded | 
[V:2] EFGF | 
[V:3] =AABA/B/ | 
[V:4] =A,/G,/F,E,F,/G,/ | 
[V:1] cB!fermata!c=A | 
[V:2] ED/F//^E//!fermata!FF | 
[V:3] cF/G/!fermata!^Ac | 
[V:4] A,/^A,/B,!fermata!F,F,/E,/ | 
[V:1] Bcd/c/B | 
[V:2] FEDE | 
[V:3] F/G/=AAG | 
[V:4] D,C,B,,/C,/D, | 
[V:1] A/F/G!fermata!A |]  
[V:2] E/F/E!fermata!E |]  
[V:3] A/d/B!fermata!c |]  
[V:4] C,/D,/E,!fermata!A,, |]  



